outputs/icons/communication/react_thumbsup_round.svg

<svg xmlns="http://www.w3.org/2000/svg" width="1200" height="1200" fill="none"><path fill="#000" d="M1019.615 653.945c15.415-26.1 24.135-53.945 24.135-87.605 0-77.372-65.42-150.436-150.855-150.436H828.77c8.65-22.517 15.555-49.447 15.555-81.808C844.325 206.137 778.075 150 676.86 150c-108.295 0-102.115 166.875-126.14 190.899C510.735 380.884 463.505 457.7 429.851 487.5H256.25c-31.066 0-56.25 25.185-56.25 56.25v421.875c0 31.065 25.184 56.25 56.25 56.25h112.5c26.179 0 48.178-17.885 54.453-42.1 78.237 1.76 131.942 70.205 312.542 70.205 12.695 0 26.755.02 39.06.02 135.555 0 196.85-69.3 198.525-167.57 23.415-32.39 35.685-75.805 30.485-117.76 17.32-32.435 24.015-70.915 15.8-110.725M911.07 748.57c22.08 37.145 2.215 86.855-24.505 101.2 13.535 85.745-30.95 115.835-93.375 115.835h-66.48c-125.925 0-207.47-66.48-301.71-66.48v-327.25h19.196c49.851 0 119.494-124.611 166.184-171.317 49.85-49.851 33.24-132.943 66.48-166.183 83.09 0 83.09 57.972 83.09 99.721 0 68.853-49.85 99.703-49.85 166.184h182.795c37.105 0 66.32 33.24 66.48 66.48.16 33.22-22.535 66.465-39.145 66.465 23.71 25.585 28.775 79.515-9.16 115.345M354.688 909.375c0 23.3-18.888 42.185-42.188 42.185s-42.187-18.885-42.187-42.185S289.2 867.19 312.5 867.19s42.188 18.885 42.188 42.185"/></svg>

<svg width="1200" height="1200" viewBox="0 0 1200 1200" fill="none" xmlns="http://www.w3.org/2000/svg"><path d="M1019.615 653.945C1035.03 627.845 1043.75 600 1043.75 566.34C1043.75 488.968 978.33 415.904 892.895 415.904H828.77C837.42 393.387 844.325 366.457 844.325 334.096C844.325 206.137 778.075 150 676.86 150C568.565 150 574.745 316.875 550.72 340.899C510.735 380.884 463.505 457.7 429.851 487.5H256.25C225.184 487.5 200 512.685 200 543.75V965.625C200 996.69 225.184 1021.875 256.25 1021.875H368.75C394.929 1021.875 416.928 1003.99 423.203 979.775C501.44 981.535 555.145 1049.98 735.745 1049.98C748.44 1049.98 762.5 1050 774.805 1050C910.36 1050 971.655 980.7 973.33 882.43C996.745 850.04 1009.015 806.625 1003.815 764.67C1021.135 732.235 1027.83 693.755 1019.615 653.945ZM911.07 748.57C933.15 785.715 913.285 835.425 886.565 849.77C900.1 935.515 855.615 965.605 793.19 965.605H726.71C600.785 965.605 519.24 899.125 425 899.125V571.875H444.196C494.047 571.875 563.69 447.264 610.38 400.558C660.23 350.707 643.62 267.615 676.86 234.375C759.95 234.375 759.95 292.347 759.95 334.096C759.95 402.949 710.1 433.799 710.1 500.28H892.895C930 500.28 959.215 533.52 959.375 566.76C959.535 599.98 936.84 633.225 920.23 633.225C943.94 658.81 949.005 712.74 911.07 748.57ZM354.688 909.375C354.688 932.675 335.8 951.56 312.5 951.56C289.2 951.56 270.313 932.675 270.313 909.375C270.313 886.075 289.2 867.19 312.5 867.19C335.8 867.19 354.688 886.075 354.688 909.375Z" fill="black"/></svg>
